apps/web/src/images/integrations/logo-splunk-black.svg

<svg width="600" height="600" viewBox="0 0 600 600" fill="none" xmlns="http://www.w3.org/2000/svg">
<path d="M64.0297 318.824C64.0297 322.809 63.1898 326.482 61.4904 329.862C59.8105 333.242 57.447 336.094 54.4389 338.458C51.4308 340.822 47.8367 342.659 43.6761 343.987C39.5156 345.316 34.9643 345.96 30.0225 345.96C24.1039 345.96 18.8104 345.159 14.1029 343.538C9.39545 341.916 4.70749 339.24 0 335.508L7.7742 322.868C11.505 325.994 14.8647 328.28 17.8924 329.725C20.9005 331.171 23.9672 331.894 27.112 331.894C30.9796 331.894 34.0658 330.917 36.4293 328.905C38.7928 326.892 39.9453 324.216 39.9453 320.836C39.9453 319.39 39.7304 318.023 39.3007 316.753C38.871 315.483 38.1092 314.194 36.9567 312.845C35.8238 311.517 34.2612 310.071 32.2492 308.508C30.2764 306.945 27.7175 305.011 24.5727 302.706C22.1701 301.006 19.8066 299.267 17.5408 297.47C15.2359 295.653 13.1849 293.738 11.3097 291.668C9.45405 289.616 7.94999 287.33 6.79754 284.791C5.66462 282.251 5.07862 279.359 5.07862 276.116C5.07862 272.385 5.85995 268.946 7.4226 265.879C8.98525 262.792 11.1144 260.174 13.8295 258.025C16.525 255.837 19.7676 254.157 23.5765 252.965C27.366 251.773 31.4679 251.148 35.941 251.148C40.6485 251.148 45.1802 251.793 49.5751 253.024C53.9701 254.294 58.033 256.111 61.7834 258.514L54.7319 269.884C49.9072 266.504 44.8481 264.824 39.5351 264.824C36.2926 264.824 33.597 265.664 31.4874 267.364C29.3583 269.063 28.3231 271.173 28.3231 273.713C28.3231 276.253 29.2411 278.304 31.1163 280.239C32.972 282.173 36.1754 284.888 40.7462 288.385C45.3365 291.765 49.165 294.735 52.1926 297.275C55.2202 299.814 57.6033 302.198 59.3613 304.445C61.1192 306.691 62.3303 308.938 62.9944 311.243C63.6586 313.549 63.9906 316.069 63.9906 318.843H64.0492L64.0297 318.824ZM169.294 296.591C169.294 303.702 168.22 310.247 166.012 316.225C163.825 322.204 160.816 327.4 156.929 331.874C153.042 336.348 148.472 339.806 143.139 342.268C137.826 344.73 132.083 345.96 125.891 345.96C123.117 345.96 120.52 345.726 118.097 345.238C115.675 344.749 113.37 343.929 111.202 342.795C109.034 341.662 106.885 340.177 104.756 338.361C102.627 336.544 100.439 334.316 98.1346 331.659V389H74.8901V253.356H98.1346L98.2518 266.563C102.49 261.268 107.081 257.361 112.003 254.899C116.965 252.418 122.707 251.207 129.231 251.207C135.15 251.207 140.561 252.32 145.424 254.548C150.327 256.775 154.546 259.881 158.101 263.867C161.656 267.852 164.411 272.6 166.344 278.168C168.278 283.716 169.235 289.87 169.235 296.61H169.274L169.294 296.591ZM144.018 297.529C144.018 287.623 142.026 279.809 138.002 274.065C133.997 268.321 128.548 265.469 121.613 265.469C114.328 265.469 108.546 268.516 104.307 274.612C100.068 280.707 97.9197 288.952 97.9197 299.326C97.9197 309.7 100.029 317.437 104.19 323.239C108.35 329.041 114.132 331.933 121.418 331.933C125.774 331.933 129.407 330.819 132.259 328.592C135.111 326.345 137.416 323.513 139.174 320.074C140.932 316.636 142.182 312.885 142.905 308.86C143.627 304.816 143.998 301.045 143.998 297.529H143.979H144.018ZM179.627 343.772H203.477V211H179.627V343.753V343.772ZM305.362 343.811V253.239H281.512V301.983C281.512 306.32 281.336 309.68 280.965 312.044C280.613 314.408 279.988 316.538 279.148 318.492C275.769 325.974 269.597 329.725 260.611 329.725C253.599 329.725 248.677 327.185 245.883 322.106C244.79 320.191 244.028 318.003 243.598 315.581C243.168 313.158 242.953 309.661 242.953 305.05V253.239H219.103V304.699C219.103 308.196 219.142 311.165 219.201 313.588C219.26 316.01 219.416 318.14 219.67 320.035C219.904 321.911 220.197 323.571 220.49 325.017C220.783 326.463 221.252 327.85 221.858 329.178C224.045 334.746 227.561 338.947 232.464 341.779C237.367 344.612 243.364 346.019 250.474 346.019C256.881 346.019 262.487 344.905 267.331 342.678C272.175 340.431 276.863 336.798 281.473 331.718L281.531 343.831H305.381V343.792H305.362V343.811ZM408.243 343.772V292.429C408.243 288.932 408.204 285.943 408.145 283.482C408.087 281 407.95 278.89 407.677 277.054C407.442 275.257 407.13 273.655 406.778 272.267C406.426 270.88 405.997 269.532 405.508 268.184C403.321 262.773 399.805 258.592 394.902 255.622C389.999 252.653 384.002 251.187 376.853 251.187C370.446 251.187 364.84 252.301 359.996 254.548C355.152 256.794 350.464 260.448 345.854 265.508L345.815 253.395H321.75V343.772H345.815V294.989C345.815 290.769 345.971 287.487 346.284 285.142C346.596 282.798 347.163 280.61 348.022 278.539C349.585 274.924 351.987 272.17 355.21 270.314C358.433 268.458 362.262 267.52 366.755 267.52C373.767 267.52 378.689 270.06 381.483 275.1C382.557 277.015 383.319 279.203 383.748 281.606C384.178 284.009 384.393 287.506 384.393 292.097V343.792H408.243V343.772ZM507.022 337.814L470.671 292.605L501.416 259.686L483.328 251.91L451.333 288.971H448.794V211H424.729V343.753H448.794V295.653L484.774 345.57L507.022 337.794H507.042L507.022 337.814ZM600 305.363V290.554L527.669 254.255V270.509L583.729 297.802L527.669 325.447V341.35L600 305.402V305.363Z" fill="black"/>
</svg>

<svg width="600" height="600" fill="none" xmlns="http://www.w3.org/2000/svg"><path d="M64.03 318.824c0 3.985-.84 7.658-2.54 11.038-1.68 3.38-4.043 6.232-7.051 8.596s-6.602 4.201-10.763 5.529c-4.16 1.329-8.712 1.973-13.654 1.973-5.918 0-11.212-.801-15.92-2.422-4.707-1.622-9.395-4.298-14.102-8.03l7.774-12.64c3.731 3.126 7.09 5.412 10.118 6.857 3.009 1.446 6.075 2.169 9.22 2.169 3.868 0 6.954-.977 9.317-2.989 2.364-2.013 3.516-4.689 3.516-8.069 0-1.446-.215-2.813-.644-4.083-.43-1.27-1.192-2.559-2.344-3.908-1.133-1.328-2.696-2.774-4.708-4.337-1.973-1.563-4.532-3.497-7.676-5.802-2.403-1.7-4.766-3.439-7.032-5.236a50.634 50.634 0 0 1-6.231-5.802 26.532 26.532 0 0 1-4.512-6.877c-1.133-2.54-1.72-5.432-1.72-8.675 0-3.731.782-7.17 2.345-10.237a23.325 23.325 0 0 1 6.406-7.854c2.696-2.188 5.939-3.868 9.747-5.06 3.79-1.192 7.892-1.817 12.365-1.817 4.707 0 9.24.645 13.634 1.876 4.395 1.27 8.458 3.087 12.208 5.49l-7.051 11.37c-4.825-3.38-9.884-5.06-15.197-5.06-3.242 0-5.938.84-8.048 2.54-2.129 1.699-3.164 3.809-3.164 6.349s.918 4.591 2.793 6.526c1.856 1.934 5.06 4.649 9.63 8.146 4.59 3.38 8.419 6.35 11.447 8.89 3.027 2.539 5.41 4.923 7.168 7.17 1.758 2.246 2.97 4.493 3.633 6.798.665 2.306.997 4.826.997 7.6h.058l-.02-.019Zm105.264-22.233c0 7.111-1.074 13.656-3.282 19.634-2.187 5.979-5.196 11.175-9.083 15.649-3.887 4.474-8.457 7.932-13.79 10.394-5.313 2.462-11.056 3.692-17.248 3.692-2.774 0-5.371-.234-7.794-.722a25.875 25.875 0 0 1-6.895-2.443c-2.168-1.133-4.317-2.618-6.446-4.434-2.129-1.817-4.317-4.045-6.621-6.702V389H74.89V253.356h23.245l.117 13.207c4.238-5.295 8.829-9.202 13.751-11.664 4.962-2.481 10.704-3.692 17.228-3.692 5.919 0 11.33 1.113 16.193 3.341 4.903 2.227 9.122 5.333 12.677 9.319 3.555 3.985 6.31 8.733 8.243 14.301 1.934 5.548 2.891 11.702 2.891 18.442h.039l.02-.019Zm-25.276.938c0-9.906-1.992-17.72-6.016-23.464-4.005-5.744-9.454-8.596-16.389-8.596-7.285 0-13.067 3.047-17.306 9.143-4.239 6.095-6.387 14.34-6.387 24.714 0 10.374 2.109 18.111 6.27 23.913 4.16 5.802 9.942 8.694 17.228 8.694 4.356 0 7.989-1.114 10.841-3.341 2.852-2.247 5.157-5.079 6.915-8.518 1.758-3.438 3.008-7.189 3.731-11.214.722-4.044 1.093-7.815 1.093-11.331h-.019.039Zm35.609 46.243h23.85V211h-23.85v132.772Zm125.735.039v-90.572h-23.85v48.744c0 4.337-.176 7.697-.547 10.061a25.839 25.839 0 0 1-1.817 6.448c-3.379 7.482-9.551 11.233-18.537 11.233-7.012 0-11.934-2.54-14.728-7.619-1.093-1.915-1.855-4.103-2.285-6.525-.43-2.423-.645-5.92-.645-10.531v-51.811h-23.85v51.46c0 3.497.039 6.466.098 8.889.059 2.422.215 4.552.469 6.447.234 1.876.527 3.536.82 4.982a19.198 19.198 0 0 0 1.368 4.161c2.187 5.568 5.703 9.769 10.606 12.601 4.903 2.833 10.9 4.24 18.01 4.24 6.407 0 12.013-1.114 16.857-3.341 4.844-2.247 9.532-5.88 14.142-10.96l.058 12.113h23.85v-.039h-.019v.019Zm102.881-.039v-51.343c0-3.497-.039-6.486-.098-8.947-.058-2.482-.195-4.592-.468-6.428a41.409 41.409 0 0 0-.899-4.787 42.825 42.825 0 0 0-1.27-4.083c-2.187-5.411-5.703-9.592-10.606-12.562-4.903-2.969-10.9-4.435-18.049-4.435-6.407 0-12.013 1.114-16.857 3.361-4.844 2.246-9.532 5.9-14.142 10.96l-.039-12.113H321.75v90.377h24.065v-48.783c0-4.22.156-7.502.469-9.847.312-2.344.879-4.532 1.738-6.603 1.563-3.615 3.965-6.369 7.188-8.225 3.223-1.856 7.052-2.794 11.545-2.794 7.012 0 11.934 2.54 14.728 7.58 1.074 1.915 1.836 4.103 2.265 6.506.43 2.403.645 5.9.645 10.491v51.695h23.85v-.02Zm98.779-5.958-36.351-45.209 30.745-32.919-18.088-7.776-31.995 37.061h-2.539V211h-24.065v132.753h24.065v-48.1l35.98 49.917 22.248-7.776h.02l-.02.02ZM600 305.363v-14.809l-72.331-36.299v16.254l56.06 27.293-56.06 27.645v15.903L600 305.402v-.039Z" fill="#000"/></svg>
